Sweet-Rainbow/icons/hyper.svg

<?xml version="1.0" encoding="UTF-8" standalone="no"?>
<!-- Generator: Gravit.io -->

<svg
   xmlns:dc="http://purl.org/dc/elements/1.1/"
   xmlns:cc="http://creativecommons.org/ns#"
   xmlns:rdf="http://www.w3.org/1999/02/22-rdf-syntax-ns#"
   xmlns:svg="http://www.w3.org/2000/svg"
   xmlns="http://www.w3.org/2000/svg"
   xmlns:sodipodi="http://sodipodi.sourceforge.net/DTD/sodipodi-0.dtd"
   xmlns:inkscape="http://www.inkscape.org/namespaces/inkscape"
   style="isolation:isolate"
   viewBox="0 0 36 36"
   width="48"
   height="48"
   version="1.1"
   id="svg9"
   sodipodi:docname="hyper.svg"
   inkscape:version="0.92.4 (5da689c313, 2019-01-14)">
  <metadata
     id="metadata15">
    <rdf:RDF>
      <cc:Work
         rdf:about="">
        <dc:format>image/svg+xml</dc:format>
        <dc:type
           rdf:resource="http://purl.org/dc/dcmitype/StillImage" />
        <dc:title></dc:title>
      </cc:Work>
    </rdf:RDF>
  </metadata>
  <defs
     id="defs13" />
  <sodipodi:namedview
     pagecolor="#ffffff"
     bordercolor="#666666"
     borderopacity="1"
     objecttolerance="10"
     gridtolerance="10"
     guidetolerance="10"
     inkscape:pageopacity="0"
     inkscape:pageshadow="2"
     inkscape:window-width="640"
     inkscape:window-height="480"
     id="namedview11"
     showgrid="false"
     inkscape:zoom="29.365243"
     inkscape:cx="25.325443"
     inkscape:cy="32"
     inkscape:current-layer="svg9"
     units="px" />
  <linearGradient
     id="_lgradient_31"
     x1="0"
     y1="0.5"
     x2="1"
     y2="0.5"
     gradientTransform="matrix(42,0,0,41,3,3.5)"
     gradientUnits="userSpaceOnUse">
    <stop
       offset="1.7391304347826086%"
       stop-opacity="1"
       style="stop-color:rgb(238,93,174)"
       id="stop2" />
    <stop
       offset="99.1304347826087%"
       stop-opacity="1"
       style="stop-color:rgb(251,178,73)"
       id="stop4" />
  </linearGradient>
  <g
     id="g826"
     transform="matrix(0.85714286,0,0,0.85714286,-2.5714286,-2.5714286)">
    <path
       id="path7"
       d="m 13,7.5 v 0 c 1.104,0 2,-0.896 2,-2 v 0 c 0,-1.104 -0.896,-2 -2,-2 v 0 H 8 c -2.76,0 -5,2.24 -5,5 v 5 0 c 0,1.104 0.896,2 2,2 v 0 c 1.104,0 2,-0.896 2,-2 v 0 -3 c 0,-1.656 1.344,-3 3,-3 z m 28,14 v 0 c 0,1.104 0.896,2 2,2 v 0 c 1.104,0 2,-0.896 2,-2 v 0 -13 c 0,-2.76 -2.24,-5 -5,-5 H 22 v 0 c -1.104,0 -2,0.896 -2,2 v 0 c 0,1.104 0.896,2 2,2 v 0 h 16 c 1.656,0 3,1.344 3,3 z M 18.43,13.64 v 0 c 0.762,-0.8 2.03,-0.834 2.83,-0.075 v 0 c 0.8,0.759 0.836,2.025 0.08,2.825 v 0 l -3.79,4 5.566,1.689 c 1.056,0.321 1.298,1.232 0.54,2.034 L 16.8,31.36 v 0 c -0.762,0.8 -2.03,0.834 -2.83,0.075 v 0 C 13.17,30.676 13.134,29.41 13.89,28.61 v 0 l 3.79,-4 -5.566,-1.689 C 11.058,22.6 10.816,21.689 11.574,20.887 Z M 28,32.5 v 0 c -1.104,0 -2,-0.896 -2,-2 v 0 c 0,-1.104 0.896,-2 2,-2 v 0 h 12 c 2.76,0 5,2.24 5,5 v 6 c 0,2.76 -2.24,5 -5,5 H 8 c -2.76,0 -5,-2.24 -5,-5 v -15 0 c 0,-1.104 0.896,-2 2,-2 v 0 c 1.104,0 2,0.896 2,2 v 0 13 c 0,1.656 1.344,3 3,3 h 28 c 1.656,0 3,-1.344 3,-3 v -2 c 0,-1.656 -1.344,-3 -3,-3 z"
       inkscape:connector-curvature="0"
       style="fill:url(#_lgradient_31);fill-rule:evenodd" />
  </g>
</svg>

<?xml version="1.0" encoding="UTF-8" standalone="no"?><!-- Generator: Gravit.io --><svg xmlns="http://www.w3.org/2000/svg" xmlns:xlink="http://www.w3.org/1999/xlink" style="isolation:isolate" viewBox="0 0 48 48" width="48pt" height="48pt"><linearGradient id="_lgradient_31" x1="0" y1="0.5" x2="1" y2="0.5" gradientTransform="matrix(42,0,0,41,3,3.5)" gradientUnits="userSpaceOnUse"><stop offset="1.7391304347826086%" stop-opacity="1" style="stop-color:rgb(238,93,174)"/><stop offset="99.1304347826087%" stop-opacity="1" style="stop-color:rgb(251,178,73)"/></linearGradient><path d=" M 13 7.5 L 13 7.5 C 14.104 7.5 15 6.604 15 5.5 L 15 5.5 C 15 4.396 14.104 3.5 13 3.5 L 13 3.5 L 8 3.5 C 5.24 3.5 3 5.74 3 8.5 L 3 13.5 L 3 13.5 C 3 14.604 3.896 15.5 5 15.5 L 5 15.5 C 6.104 15.5 7 14.604 7 13.5 L 7 13.5 L 7 10.5 C 7 8.844 8.344 7.5 10 7.5 L 13 7.5 L 13 7.5 L 13 7.5 Z  M 41 21.5 L 41 21.5 C 41 22.604 41.896 23.5 43 23.5 L 43 23.5 C 44.104 23.5 45 22.604 45 21.5 L 45 21.5 L 45 8.5 C 45 5.74 42.76 3.5 40 3.5 L 22 3.5 L 22 3.5 C 20.896 3.5 20 4.396 20 5.5 L 20 5.5 C 20 6.604 20.896 7.5 22 7.5 L 22 7.5 L 38 7.5 C 39.656 7.5 41 8.844 41 10.5 L 41 21.5 L 41 21.5 L 41 21.5 Z  M 18.43 13.64 L 18.43 13.64 C 19.192 12.84 20.46 12.806 21.26 13.565 L 21.26 13.565 C 22.06 14.324 22.096 15.59 21.34 16.39 L 21.34 16.39 L 17.55 20.39 L 23.116 22.079 C 24.172 22.4 24.414 23.311 23.656 24.113 L 16.8 31.36 L 16.8 31.36 C 16.038 32.16 14.77 32.194 13.97 31.435 L 13.97 31.435 C 13.17 30.676 13.134 29.41 13.89 28.61 L 13.89 28.61 L 17.68 24.61 L 12.114 22.921 C 11.058 22.6 10.816 21.689 11.574 20.887 L 18.43 13.64 L 18.43 13.64 Z  M 28 32.5 L 28 32.5 C 26.896 32.5 26 31.604 26 30.5 L 26 30.5 C 26 29.396 26.896 28.5 28 28.5 L 28 28.5 L 40 28.5 C 42.76 28.5 45 30.74 45 33.5 L 45 39.5 C 45 42.26 42.76 44.5 40 44.5 L 8 44.5 C 5.24 44.5 3 42.26 3 39.5 L 3 24.5 L 3 24.5 C 3 23.396 3.896 22.5 5 22.5 L 5 22.5 C 6.104 22.5 7 23.396 7 24.5 L 7 24.5 L 7 37.5 C 7 39.156 8.344 40.5 10 40.5 L 38 40.5 C 39.656 40.5 41 39.156 41 37.5 L 41 35.5 C 41 33.844 39.656 32.5 38 32.5 L 28 32.5 Z " fill-rule="evenodd" fill="url(#_lgradient_31)"/></svg>
